X:283
T: "Kommt her zu mir" spricht Gottes Sohn
N: A0636A
O: Europa, Mitteleuropa, Deutschland
N: Joh. Ott 1534 No. 15
R: Romanze, Ballade, Lied, religioeses Lied
M: 4/2
L: 1/4
K: G
G4G2G2 | d6c2 | d2_B2A4 | z2
G2_B2A2 | _B6d2 | c2_B2A4 | z2
A2G2G2 | c3_BA2B2 | G4=F4 | z2
=F2_B2A2 | _B6d2 | c2_B2A4 | z2
G2_B2A2 | _B6d2 | c2_B2A4 | z2
A2G2A2 | _B2A2d3c | _B2c2A4 | G8

